tools/download-figma-icons/icons/outlined-medium/food-2.svg

<svg width="24" height="24" viewBox="0 0 24 24" fill="none" xmlns="http://www.w3.org/2000/svg">
<path fill-rule="evenodd" clip-rule="evenodd" d="M9 19.5C4.8645 19.5 1.5 16.1355 1.5 12C1.5 7.8645 4.8645 4.5 9 4.5C13.1355 4.5 16.5 7.8645 16.5 12C16.5 16.1355 13.1355 19.5 9 19.5ZM9 3C4.03725 3 0 7.03725 0 12C0 16.9628 4.03725 21 9 21C13.9628 21 18 16.9628 18 12C18 7.03725 13.9628 3 9 3ZM8.95094 16.5C6.46919 16.5 4.45094 14.4818 4.45094 12C4.45094 9.51825 6.46919 7.5 8.95094 7.5C11.4327 7.5 13.4509 9.51825 13.4509 12C13.4509 14.4818 11.4327 16.5 8.95094 16.5ZM8.95094 6C5.64269 6 2.95094 8.69175 2.95094 12C2.95094 15.3082 5.64269 18 8.95094 18C12.2592 18 14.9509 15.3082 14.9509 12C14.9509 8.69175 12.2592 6 8.95094 6ZM21.375 19.5C21.5812 19.5 21.75 19.3312 21.75 19.125V11.625C21.75 11.4187 21.5812 11.25 21.375 11.25C21.1688 11.25 21 11.4187 21 11.625V19.125C21 19.3312 21.1688 19.5 21.375 19.5ZM22.5 5.8275C22.5 5.27625 22.1505 4.5 21.375 4.5C20.4848 4.5 20.25 5.36775 20.25 5.8275C20.25 6.8595 20.6812 7.5 21.375 7.5C21.9638 7.5 22.5 6.70275 22.5 5.8275ZM22.125 8.85225V9.909C22.7865 10.1992 23.25 10.8577 23.25 11.625V19.125C23.25 20.1593 22.4093 21 21.375 21C20.3407 21 19.5 20.1593 19.5 19.125V11.625C19.5 10.8577 19.9635 10.1992 20.625 9.909V8.8695C19.6268 8.54775 18.75 7.575 18.75 5.8275C18.75 4.4565 19.6702 3 21.375 3C23.0175 3 24 4.43775 24 5.8275C24 7.26 23.205 8.45925 22.125 8.85225Z" fill="black"/>
</svg>

<svg xmlns="http://www.w3.org/2000/svg" width="24" height="24" fill="none" viewBox="0 0 24 24"><path fill="currentColor" fill-rule="evenodd" d="M9 19.5c-4.135 0-7.5-3.364-7.5-7.5 0-4.135 3.364-7.5 7.5-7.5s7.5 3.364 7.5 7.5-3.364 7.5-7.5 7.5M9 3c-4.963 0-9 4.037-9 9s4.037 9 9 9 9-4.037 9-9-4.037-9-9-9m-.05 13.5a4.504 4.504 0 0 1-4.5-4.5c0-2.482 2.02-4.5 4.5-4.5 2.483 0 4.5 2.018 4.5 4.5s-2.017 4.5-4.5 4.5m0-10.5c-3.307 0-6 2.692-6 6s2.693 6 6 6c3.31 0 6-2.692 6-6s-2.69-6-6-6m12.425 13.5a.376.376 0 0 0 .375-.375v-7.5a.376.376 0 0 0-.375-.375.376.376 0 0 0-.375.375v7.5c0 .206.169.375.375.375M22.5 5.828c0-.552-.35-1.328-1.125-1.328-.89 0-1.125.868-1.125 1.327 0 1.032.431 1.673 1.125 1.673.589 0 1.125-.797 1.125-1.673m-.375 3.024V9.91c.662.29 1.125.949 1.125 1.716v7.5c0 1.034-.84 1.875-1.875 1.875a1.877 1.877 0 0 1-1.875-1.875v-7.5c0-.767.463-1.426 1.125-1.716V8.87c-.998-.321-1.875-1.294-1.875-3.041 0-1.372.92-2.828 2.625-2.828C23.017 3 24 4.438 24 5.827c0 1.433-.795 2.632-1.875 3.025" clip-rule="evenodd"/></svg>
